svg/cards_club.svg

<svg xmlns="http://www.w3.org/2000/svg" viewBox="0 0 24 24"><path d="M12 2c2.3 0 4.3 2 4.3 4.2a4.45 4.45 0 0 1-2.26 3.8c1-.5 2.46-.5 2.46-.5 2.5 0 4.5 1.8 4.5 4.3S19 18 16.5 18c0 0-1.5 0-3.5-1 0 0-.3 2 2 5H9c2.3-3 2-5 2-5-2 1-3.5 1-3.5 1C5 18 3 16.3 3 13.8s2-4.3 4.5-4.3c0 0 1.46 0 2.46.5-.3-.17-2.17-1.23-2.26-3.8C7.7 4 9.7 2 12 2"/></svg>

<?xml version="1.0" encoding="UTF-8"?><!DOCTYPE svg PUBLIC "-//W3C//DTD SVG 1.1//EN" "http://www.w3.org/Graphics/SVG/1.1/DTD/svg11.dtd"><svg xmlns="http://www.w3.org/2000/svg" xmlns:xlink="http://www.w3.org/1999/xlink" version="1.1" id="mdi-cards-club" width="24" height="24" viewBox="0 0 24 24"><path d="M12,2C14.3,2 16.3,4 16.3,6.2C16.21,8.77 14.34,9.83 14.04,10C15.04,9.5 16.5,9.5 16.5,9.5C19,9.5 21,11.3 21,13.8C21,16.3 19,18 16.5,18C16.5,18 15,18 13,17C13,17 12.7,19 15,22H9C11.3,19 11,17 11,17C9,18 7.5,18 7.5,18C5,18 3,16.3 3,13.8C3,11.3 5,9.5 7.5,9.5C7.5,9.5 8.96,9.5 9.96,10C9.66,9.83 7.79,8.77 7.7,6.2C7.7,4 9.7,2 12,2Z" /></svg>
